icon/pk/come.svg

<svg viewBox="0 0 48 48" fill="none" xmlns="http://www.w3.org/2000/svg" height="1em" width="1em">
  <path d="M19.0004 40C10.1277 35.5636 7.00049 26 4.00007 19.5C2.6504 16.5761 7.52621 15.8109 10.4998 17C13.0004 18 16.0001 20 16.0001 20V11.5C16.0001 9.567 17.5671 8 19.5001 8C21.4331 8 23.0001 9.567 23.0001 11.5V9.5C23.0001 7.567 24.5671 6 26.5001 6C28.4331 6 30.0001 7.567 30.0001 9.5V13.5C30.0001 11.567 31.5671 10 33.5001 10C35.4331 10 37.0001 11.567 37.0001 13.5V16.5C37.0001 14.567 38.5671 13 40.5001 13C42.4331 13 44.0001 14.5655 44.0001 16.4985V29C44.0001 32.5 42.0004 37 37.0001 40C32.2067 42.8758 25.0004 43 19.0004 40Z" fill="#2F88FF" stroke="black" stroke-width="4" stroke-linecap="round" stroke-linejoin="round"/>
</svg>

<svg width="48" height="48" fill="none" xmlns="http://www.w3.org/2000/svg"><path d="M19 40C10.128 35.564 7 26 4 19.5c-1.35-2.924 3.526-3.69 6.5-2.5 2.5 1 5.5 3 5.5 3v-8.5a3.5 3.5 0 1 1 7 0v-2a3.5 3.5 0 1 1 7 0v4a3.5 3.5 0 1 1 7 0v3a3.5 3.5 0 0 1 7-.002V29c0 3.5-2 8-7 11-4.793 2.876-12 3-18 0Z" fill="#2F88FF" stroke="#000" stroke-width="4" stroke-linecap="round" stroke-linejoin="round"/></svg>
